X:1
T:Messianic Praise Song
T:Messianic Praise Song
T:Scott Werdebaugh, 1997
T:Scott Werdebaugh, 1997
T:© 1997 Scott Werdebaugh &amp; New Heart Music -  Freely Copied and Used for Christian worship or devotion with no alterations. All Other Rights Reserved.
T:© 1997 Scott Werdebaugh &amp; New Heart Music -  Freely Copied and Used for Christian worship or devotion with no alterations. All Other Rights Reserved.
T:© 1997 Scott Werdebaugh &amp; New Heart Music -  Freely Copied and Used for Christian worship or devotion with no alterations. All Other Rights Reserved.
C:Scott Werdebaugh, 1997
Z:© 1997 Scott Werdebaugh & New Heart Music -  Freely Copied and Used for
Z:Christian worship or devotion with no alterations. All Other Rights Reserved.
%%score ( 1 2 ) ( 3 4 ) ( 5 6 ) ( 7 8 )
L:1/8
Q:1/4=108
M:4/4
K:C
V:1 treble 
V:2 treble 
V:3 bass 
V:4 bass 
V:5 treble 
V:6 treble 
V:7 bass 
V:8 bass 
V:1
"^Cantabile" z8 | z8 x2[Q:1/4=94] |:"^Brightly"!mf![Q:1/4=108]"^a tempo" [EG]2 [CE]2 [EG]2 [B,E]2 | %3
w: ||Je- sus, Sav- ior,|
w: ||Je- sus, Sav- ior,|
 [CF]2 [EG][FA] [DG]4 | [EG]2 [CE]2 [EG]2 [B,E]2 | [CF]2 ([EG][FA]) [GB]4 | %6
w: our ris- en Lord;|Sov- ’reign Mas- ter,|com- ing * King;|
w: my ris- en Lord;|Sov- ’reign Mas- ter,|com- ing * King;|
!f! [Ec]2 [EA]2 [^GB]2 [^FA][GB] | [Ac]2 [GB][Ac] [Gd]2 [Gc][Gd] | %8
w: Glo- ry, hon- or,~~ All|bless- ing and praise be~~ to|
w: Glo- ry, hon- or,~~ All|bless- ing and praise be~~ to|
!ff! [Ge]2 [Gd][Gc] [Ae]2 [Ad][Ac] | [Fd]2 [Fc][GB] [_Ad]2 [Ac][GB] | ([Ec-]4 [Dc]2) [Ac][Gd] | %11
w: You, Lamb of God, Al- le-|lu, Al- le- ~~lu- ia!~~ A-|men! * Be~~ to|
w: You, Lamb of God, Al- le-|lu, Al- le- ~~lu- ia!~~ A-|men! * Be~~ to|
!f! [Ge]2 [Gd][Gc] [Ae]2 [Ad][Ac] | [Fd]2 [Fc][GB] [_Ad]2 [Ac][GB] |1 c8 | z8 x2[Q:1/4=98] :|2 %15
w: You, Lamb of God, Al- le-|lu, Al- le- ~~lu- ia!~~ A-|men!||
w: You, Lamb of God, Al- le-|lu, Al- le- ~~lu- ia!~~ A-|~~||
 c8- || [Ec]2 z2 z4 x2[Q:1/4=98] | z8 | z8 |] %19
w: ||||
w: ||||
V:2
 x8 | x10 |: x8 | x4 (C2 B,2) | x8 | x8 | x8 | x8 | x8 | x8 | x8 | x8 | x8 |1 (E4 F4) | x10 :|2 %15
 E4 F4 || x10 | x8 | x8 |] %19
V:3
 z8 | z8 x2 |: [C,E,]2 [C,G,]2 [E,B,]2 [E,G,]2 | [F,A,]2 [G,C][F,C] G,4 | %4
 [C,E,]2 [C,G,]2 [E,B,]2 [E,G,]2 | [F,A,]2 ([G,C][A,C]) [G,D]4 | %6
 [A,C]2 [A,C]2 [E,^G,]2 [D,^F,][E,G,] | [E,A,]2 [E,G,][E,A,] [G,B,]2 [E,C][B,,G,] | %8
 [C,G,]2 [B,,G,][E,G,] [C,A,]2 [D,F,][C,F,] | [D,A,]2 [F,A,][D,G,] [C,F,]2 [C,F,][D,F,] | %10
 ([C,G,]2 [E,G,]2 [^F,A,]2) [D,F,][B,,G,] | [C,G,]2 [B,,G,][E,G,] [C,A,]2 [D,F,][F,A,] | %12
 [D,A,]2 [F,A,][D,G,] [C,F,]2 [C,F,][D,F,] |1 (G,4 A,4) | z8 x2 :|2 G,4 A,4 || [C,G,]2 z2 z4 x2 | %17
 z8 | z8 |] %19
V:4
 x8 | x10 |: x8 | x4 G,4 | x8 | x8 | x8 | x8 | x8 | x8 | x8 | x8 | x8 |1 C,8 | x10 :|2 C,8- || %16
 x10 | x8 | x8 |] %19
V:5
!mp! [EG]2 (3(EF[EG] [CF]2) [FA]2 |"^rit."!mf! c4 (3([FA][GB][Ac] c2)!mp! A2 |: %2
!mp! [EG]2 [CE]2 [EG]2 [B,E]2 | [CF]2 [EG][FA] [DG]4 | [EG]2 [CE]2 [EG]2 [B,E]2 | %5
 [CF]2 ([EG][FA]) [GB]4 |!mf! [Ec]2 [EA]2 [^GB]2 [^FA][GB] | [Ac]2 [GB][Ac] [Gd]2 [Gc][Gd] | %8
!ff!!f! [Ge]2 [Gd][Gc] [Ae]2 [Ad][Ac] | [Fd]2 [Fc][GB] [_Ad]2 [Ac][GB] | ([Ec-]4 [Dc]2) [Ac][Gd] | %11
!f!!mf! [Ge]2 [Gd][Gc] [Ae]2 [Ad][Ac] | [Fd]2 [Fc][GB] [_Ad]2 [Ac][GB] |1 %13
!mf! [EGc]2 (3([CE][CF][EG] [CF]2) [FA]2 |"^rit."!f! c4 (3([FA][GB][Ac]) c2!mf! A2 :|2 %15
!mf! [EGc]2 (3([CE][CF][EG] [CF]2) [FA]2 ||"^rit."!f! c4 (3([FA][GB][Ac] [Fc]2) d2 | %17
!ff!"^allarg." [Ge]4 (3([cf][ce][cf] [cg]2) |!fff! !fermata![cegc']8 |] %19
V:6
 x2 C2 x4 | E2 (FG) (CD) x4 |: x8 | x4 (C2 B,2) | x8 | x8 | x8 | x8 | x8 | x8 | x8 | x8 | x8 |1 %13
 x8 | E2 FG CD x4 :|2 x8 || E2 GF x6 | x8 | x8 |] %19
V:7
 [C,E,]2 [C,G,]2 [F,A,]2 [C,F,]2 | [C,G,]2 [C,F,]2 (A,B,) [C,F,]2 x2 |: %2
 [C,E,]2 [C,G,]2 [E,B,]2 [E,G,]2 | [F,A,]2 C2 G,4 | [C,E,]2 [C,G,]2 [E,B,]2 [E,G,]2 | %5
 [F,A,]2 C2 D4 | [A,,E,]2 [C,A,]2 [E,B,]2 [D,A,][E,^G,] | %7
 [E,A,]2 [E,G,][E,A,] [G,B,]2 [E,C][B,,G,] | [C,G,]2 [B,,G,][E,G,] [C,A,]2 [D,F,][C,F,] | %9
 [D,A,]2 [F,A,][D,G,] [C,F,]2 [C,F,][D,F,] | ([C,G,]2 [E,G,]2 [^F,A,]2) [D,F,][B,,G,] | %11
 [C,G,]2 [B,,G,][E,G,] [C,A,]2 [D,F,][F,A,] | [D,A,]2 [F,A,][D,G,] [C,F,]2 [C,F,][D,F,] |1 %13
 [C,E,G,]2 [C,G,]2 [F,A,]2 [C,F,]2 | [C,G,]2 [C,F,]2 A,B, [C,F,]2 x2 :|2 %15
 [C,E,G,]2 [C,G,]2 [F,A,]2 [C,F,]2 || [C,G,]2 [C,F,]2 [F,A,]2 [G,B,]2 x2 | %17
 [C,G,]4 [F,A,]2 [C,E,]2 | z4 !fermata![C,,,C,,]4 |] %19
V:8
 x8 | x4 F,2 x4 |: x8 | x2 G,F, G,4 | x8 | x2 (G,F,) G,D,G,F, | x8 | x8 | x8 | x8 | x8 | x8 | x8 |1 %13
 x8 | x4 F,2 x4 :|2 x8 || x10 | x8 | [C,E,G,]8 |] %19

